X: 626
%
U:~=!turn!
T: The White Cockade
C:
O:Scotland
B:Keith Norman MacDonald : "The Skye collection of the best reels & strathspeys extant" : 1887
Z:Ralph Palmer
N:Country Dance
R:Reel
M:C
L:1/8
K:B phrygian
{/F}(GA) | B2 B2 B2 (AB) | {/F}G2 B2 B2 {/f}(ge) | {Bc}d2 B2 TB2 (AG) | TB2 A2 A2 {/F}(GA) | B2 (Bd) {AB}cBAG | A2 B2 {/f}g3 a | (ba)gf efge | {/^c}d2 B2 B2 ||
|: (Bc) | {/^c}d2 B2 {/f}g2 B2 | {/^c}dd2 d2 d3 e | {/^c}d2 B2 {/f}g2 (fg) | a2 A2 A2 {/F}(GA) | B2 (Bc) {/B}cBAG | A2 B2 {/f}g3 a | (ba)(gf) ef{/f}ge | {/^c}d2 B2 B2 |]


